X: 1
T: Grittenfeldt
T: Reinlender av \AAnon Egeland
C: \AAnon Egeland
R: shottish
S: as played by Olov Johansson
Z: 2005 John Chambers from MS by Elizabeth Weiss
M: 2/4
L: 1/16
K: A
|: ABcd ee=ge | feec A2Ac | B2=G2 G2Bd |1,3 c2A2 A3E :|2,4 c2A2 A4 :|
|: a2a2 a2ba | g2e2 e3f |1,3 edcB cdfa | g2e2 e4 :|2,4 edcB c2A=G | =GAA2 A4 :|
